Simply-Green-Circles/scalable/apps/jokosher.svg

<?xml version="1.0" encoding="UTF-8" standalone="no"?>
<svg
   xmlns:dc="http://purl.org/dc/elements/1.1/"
   xmlns:cc="http://creativecommons.org/ns#"
   xmlns:rdf="http://www.w3.org/1999/02/22-rdf-syntax-ns#"
   xmlns:svg="http://www.w3.org/2000/svg"
   xmlns="http://www.w3.org/2000/svg"
   xmlns:sodipodi="http://sodipodi.sourceforge.net/DTD/sodipodi-0.dtd"
   xmlns:inkscape="http://www.inkscape.org/namespaces/inkscape"
   width="48"
   height="48"
   viewBox="0 0 12.7 12.7"
   version="1.1"
   id="svg6"
   sodipodi:docname="jokosher.svg"
   inkscape:version="0.92.4 (5da689c313, 2019-01-14)">
  <metadata
     id="metadata12">
    <rdf:RDF>
      <cc:Work
         rdf:about="">
        <dc:format>image/svg+xml</dc:format>
        <dc:type
           rdf:resource="http://purl.org/dc/dcmitype/StillImage" />
        <dc:title></dc:title>
      </cc:Work>
    </rdf:RDF>
  </metadata>
  <defs
     id="defs10" />
  <sodipodi:namedview
     pagecolor="#ffffff"
     bordercolor="#666666"
     borderopacity="1"
     objecttolerance="10"
     gridtolerance="10"
     guidetolerance="10"
     inkscape:pageopacity="0"
     inkscape:pageshadow="2"
     inkscape:window-width="1087"
     inkscape:window-height="480"
     id="namedview8"
     showgrid="false"
     inkscape:zoom="4.9166667"
     inkscape:cx="2.1355932"
     inkscape:cy="24"
     inkscape:window-x="0"
     inkscape:window-y="25"
     inkscape:window-maximized="0"
     inkscape:current-layer="svg6" />
  <path
     d="M 3.007,2.751 2.974,3.414 A 816.904,816.904 0 0 1 5.703,7.928 L 4.128,3.016 C 3.786,2.946 3.343,2.836 3.008,2.751 Z m 2.696,5.177 2.05,-4.78 C 7.37,3.203 6.945,3.255 6.513,3.266 6.285,4.601 6.007,6.219 5.703,7.928 Z m 0,0 L 9.679,6.65 V 5.52 C 8.535,6.216 7.16,7.055 5.703,7.93 Z m 0,0 3.516,1.505 C 9.371,9.176 9.492,8.901 9.57,8.606 A 762.3,762.3 0 0 1 5.703,7.928 Z m 0,0 1.006,3.127 c 0.266,-0.03 0.528,-0.092 0.772,-0.18 A 766.264,766.264 0 0 1 5.703,7.928 Z m 0,0 -1.139,2.652 C 4.761,10.7 4.968,10.806 5.188,10.884 5.348,9.96 5.519,8.96 5.703,7.929 Z m 0,0 L 3.13,8.755 C 3.193,8.956 3.272,9.149 3.372,9.332 4.107,8.887 4.892,8.414 5.702,7.928 Z m 0,0 -2.73,-1.17 v 0.687 c 0.862,0.15 1.781,0.314 2.73,0.483 z"
     id="path2"
     inkscape:connector-curvature="0"
     style="opacity:0.75099996;fill:#d45500;fill-rule:evenodd" />
  <path
     d="m 6.344,0.073 a 6.29,6.29 0 0 0 -6.29,6.29 6.29,6.29 0 0 0 6.29,6.288 6.29,6.29 0 0 0 6.29,-6.289 6.29,6.29 0 0 0 -6.29,-6.29 z M 6.326,1.009 A 5.407,5.407 0 0 1 11.733,6.416 5.407,5.407 0 0 1 6.326,11.823 5.407,5.407 0 0 1 0.92,6.416 5.407,5.407 0 0 1 6.326,1.01 Z M 9.56,2.416 c 0,0 -1.63,0.501 -3.247,0.501 -1.617,0 -3.219,-0.48 -3.219,-0.48 -0.252,0 -0.454,0.101 -0.454,0.352 v 5.006 c 0,2.01 1.651,3.641 3.686,3.641 2.035,0 3.687,-1.631 3.687,-3.64 V 2.788 c 0,-0.251 -0.2,-0.373 -0.453,-0.373 z M 8.869,3.379 c 0.198,0 0.357,0.096 0.357,0.294 V 7.61 c 0,1.58 -1.3,2.863 -2.9,2.863 -1.6,0 -2.899,-1.283 -2.899,-2.863 V 3.673 c 0,-0.198 0.158,-0.277 0.357,-0.277 0,0 1.26,0.377 2.532,0.377 1.271,0 2.553,-0.394 2.553,-0.394 z M 8.722,3.703 7.41,3.98 V 8.038 C 7.41,8.298 7.34,8.496 7.199,8.631 7.061,8.765 6.855,8.833 6.583,8.833 H 6.378 V 9.708 H 6.644 C 7.341,9.708 7.861,9.57 8.204,9.293 8.549,9.017 8.722,8.598 8.722,8.038 Z"
     id="path4"
     inkscape:connector-curvature="0"
     style="fill:#2ca02c" />
</svg>

<svg xmlns="http://www.w3.org/2000/svg" width="48" height="48" viewBox="0 0 12.7 12.7"><path fill="#d45500" fill-rule="evenodd" d="M3 2.75l-.03.66A816.9 816.9 0 0 1 5.7 7.93L4.13 3.02c-.34-.07-.79-.18-1.12-.27zm2.7 5.18l2.05-4.78c-.38.05-.8.1-1.24.12l-.8 4.66zm0 0l3.98-1.28V5.52L5.7 7.93zm0 0l3.52 1.5c.15-.25.27-.53.35-.82a762.3 762.3 0 0 1-3.87-.68zm0 0l1 3.12c.28-.03.54-.09.78-.18A766.26 766.26 0 0 1 5.7 7.94zm0 0l-1.14 2.65c.2.12.4.23.63.3l.51-2.95zm0 0l-2.57.82c.06.2.14.4.24.58l2.33-1.4zm0 0L2.97 6.76v.68l2.73.49z" opacity=".75"/><path fill="#2ca02c" d="M6.34.07a6.29 6.29 0 0 0-6.29 6.3 6.29 6.29 0 0 0 6.3 6.28 6.29 6.29 0 0 0 6.28-6.29A6.29 6.29 0 0 0 6.34.07zm-.01.94a5.4 5.4 0 0 1 5.4 5.4 5.4 5.4 0 0 1-5.4 5.41 5.4 5.4 0 0 1-5.41-5.4A5.4 5.4 0 0 1 6.32 1zm3.23 1.4s-1.63.5-3.25.5-3.22-.47-3.22-.47c-.25 0-.45.1-.45.35v5c0 2.01 1.65 3.65 3.69 3.65S10 9.8 10 7.8V2.79c0-.25-.2-.37-.45-.37zm-.7.97c.2 0 .37.1.37.3V7.6c0 1.58-1.3 2.86-2.9 2.86-1.6 0-2.9-1.28-2.9-2.86V3.67c0-.2.15-.27.35-.27 0 0 1.26.37 2.54.37 1.27 0 2.55-.4 2.55-.4zm-.14.32l-1.31.28v4.06c0 .26-.07.46-.21.6-.14.12-.35.2-.62.2h-.2v.87h.26c.7 0 1.22-.14 1.56-.42.35-.27.52-.7.52-1.25z"/></svg>
